lib/brands/icons/soundcloud.svg

<svg xmlns="http://www.w3.org/2000/svg" fill="none" aria-hidden="true" viewBox="0 0 48 48"><g id="soundcloud-Icon"><circle id="bg" cx="24" cy="24" r="21" fill="#FF5502"/><g id="sound_cloud"><path fill="white" d="M35.8953 31.5H23.6163V16.6657C24.754 15.6268 26.2275 15 27.8372 15C31.3994 15 34.2947 18.0694 34.3593 21.8821C34.8397 21.6994 35.3568 21.6 35.8953 21.6C38.4384 21.6 40.5 23.8162 40.5 26.55C40.5 29.2838 38.4384 31.5 35.8953 31.5Z"/><path fill="white" d="M22.5 18H21V31.5H22.5V18Z"/><path fill="white" d="M18 19.5H19.5V31.5H18V19.5Z"/><path fill="white" d="M16.5 22.5H15V31.5H16.5V22.5Z"/><path fill="white" d="M12 21H13.5V31.5H12V21Z"/><path fill="white" d="M10.5 24H9V31.5H10.5V24Z"/></g></g></svg>

<svg xmlns="http://www.w3.org/2000/svg" fill="none" aria-hidden="true" viewBox="0 0 48 48"><circle cx="24" cy="24" r="21" fill="#FF5502"/><path fill="#fff" d="M35.895 31.5H23.616V16.666C24.754 15.626 26.227 15 27.837 15c3.562 0 6.458 3.07 6.522 6.882a4.31 4.31 0 0 1 1.536-.282c2.543 0 4.605 2.216 4.605 4.95s-2.062 4.95-4.605 4.95ZM22.5 18H21v13.5h1.5V18ZM18 19.5h1.5v12H18v-12Zm-1.5 3H15v9h1.5v-9ZM12 21h1.5v10.5H12V21Zm-1.5 3H9v7.5h1.5V24Z"/></svg>
